packages/icons/src/tasAppResize.svg

<svg  viewBox="0 0 33 33" fill="none" xmlns="http://www.w3.org/2000/svg">
<g clip-path="url(#clip0_3126_322918)">
<path d="M19.7934 26.7349L16.9045 29.7474L16.906 21.0864V29.7474L14.0156 26.7349" stroke="#0278D5" stroke-linecap="round" stroke-linejoin="round"/>
<path d="M6.91814 19.9974L3.90365 17.1104L12.5703 17.1119L3.90365 17.1119L6.91814 14.2234" stroke="#0278D5" stroke-linecap="round" stroke-linejoin="round"/>
<path d="M26.8905 19.9974L29.9049 17.1104L21.2383 17.1119L29.9049 17.1119L26.8905 14.2234" stroke="#0278D5" stroke-linecap="round" stroke-linejoin="round"/>
<path d="M19.7934 6.76021L16.9045 3.74768L16.906 12.4087V3.74768L14.0156 6.76021" stroke="#0278D5" stroke-linecap="round" stroke-linejoin="round"/>
<path d="M29.4772 31.5941H26.0675C26.001 31.5946 25.9352 31.58 25.8751 31.5512C25.8151 31.5225 25.7623 31.4805 25.721 31.4283L23.5559 28.7192C23.5134 28.666 23.4837 28.6036 23.4692 28.5371C23.4547 28.4705 23.4557 28.4015 23.4721 28.3354L24.2956 25.0189C24.3115 24.9566 24.3405 24.8985 24.3807 24.8484C24.4208 24.7983 24.4713 24.7573 24.5285 24.7282L27.5805 23.1985C27.6419 23.1682 27.7094 23.1523 27.778 23.1523C27.8465 23.1523 27.9141 23.1682 27.9755 23.1985L31.0665 24.7301C31.1251 24.7585 31.1767 24.7997 31.2173 24.8506C31.2579 24.9016 31.2866 24.961 31.3013 25.0245L32.0875 28.341C32.102 28.4055 32.1017 28.4725 32.0869 28.537C32.0721 28.6015 32.043 28.6618 32.0018 28.7136L29.8219 31.4302C29.7804 31.4815 29.7278 31.5229 29.6682 31.5513C29.6085 31.5797 29.5433 31.5943 29.4772 31.5941ZM26.0675 31.1376H29.4697L31.6404 28.4379L30.8578 25.1344L27.7798 23.6103L24.7391 25.1344L23.9174 28.4397L26.0675 31.1376Z" fill="#238FCF"/>
<path d="M31.6969 24.1191L32.0844 23.8005L28.0059 21.7808V22.2913L31.6969 24.1191Z" fill="#1BBFD3"/>
<path d="M22.7514 28.8647L22.2539 28.9747L25.099 32.5446L25.3226 32.0918L22.7514 28.8647Z" fill="#79BF43"/>
<path d="M27.5479 22.2932V21.7827L23.5234 23.8006L23.8998 24.1248L27.5479 22.2932Z" fill="#1BBFD3"/>
<path d="M23.6281 24.4934L23.2405 24.1599L22.1543 28.5273L22.6536 28.4173L23.6281 24.4934Z" fill="#1D4489"/>
<path d="M32.9062 28.4192L33.4037 28.5291L32.3696 24.1599L31.9746 24.4841L32.9062 28.4192Z" fill="#1D4489"/>
<path d="M32.8042 28.8647L30.2051 32.0974L30.4268 32.5502L33.3017 28.9747L32.8042 28.8647Z" fill="#79BF43"/>
<path d="M25.7333 32.2893L25.5098 32.7477H30.0131L29.7895 32.2893H25.7333Z" fill="#1BBFD3"/>
</g>
<defs>
<clipPath id="clip0_3126_322918">
<rect width="32" height="32" fill="white" transform="translate(0.904297 0.747559)"/>
</clipPath>
</defs>
</svg>

<svg viewBox="0 0 33 33" fill="none" xmlns="http://www.w3.org/2000/svg"><g clip-path="url(#a)"><path d="m19.793 26.735-2.889 3.012.002-8.66v8.66l-2.89-3.012M6.918 19.997 3.904 17.11l8.666.002H3.904l3.014-2.889M26.89 19.997l3.015-2.887-8.667.002h8.667l-3.015-2.889M19.793 6.76l-2.889-3.012.002 8.66v-8.66l-2.89 3.012" stroke="#0278D5" stroke-linecap="round" stroke-linejoin="round"/><path d="M29.477 31.594h-3.41a.438.438 0 0 1-.346-.166l-2.165-2.709a.443.443 0 0 1-.084-.384l.824-3.316a.45.45 0 0 1 .233-.29l3.052-1.53a.446.446 0 0 1 .395 0l3.09 1.531a.436.436 0 0 1 .235.294l.787 3.317a.443.443 0 0 1-.086.373l-2.18 2.716a.443.443 0 0 1-.345.164Zm-3.41-.456h3.403l2.17-2.7-.782-3.304-3.078-1.524-3.04 1.524-.823 3.306 2.15 2.698Z" fill="#238FCF"/><path d="m31.697 24.12.387-.32-4.078-2.02v.511l3.69 1.828Z" fill="#1BBFD3"/><path d="m22.751 28.865-.497.11 2.845 3.57.224-.453-2.572-3.227Z" fill="#79BF43"/><path d="M27.548 22.293v-.51L23.523 23.8l.377.324 3.648-1.832Z" fill="#1BBFD3"/><path d="m23.628 24.493-.387-.333-1.087 4.367.5-.11.974-3.924ZM32.906 28.42l.498.11-1.034-4.37-.395.324.931 3.935Z" fill="#1D4489"/><path d="m32.804 28.865-2.599 3.232.222.453 2.875-3.575-.498-.11Z" fill="#79BF43"/><path d="m25.733 32.29-.223.458h4.503l-.224-.459h-4.056Z" fill="#1BBFD3"/></g><defs><clipPath id="a"><path fill="#fff" transform="translate(.904 .748)" d="M0 0h32v32H0z"/></clipPath></defs></svg>
